ocean/assets/images/icon_volume_3@1x.svg

<svg fill="none" height="120" viewBox="0 0 120 120" width="120" xmlns="http://www.w3.org/2000/svg"><path d="m78.4219 80.7699c.3652.2578.8379.1503 1.0957-.2364 3.5019-5.5644 6.1875-11.7519 6.1875-20.0449s-2.7071-14.4805-6.1875-20.0449c-.2578-.4082-.7305-.5156-1.0957-.2363-.3653.2363-.4297.7304-.1719 1.1601 3.3301 5.3281 5.8867 11.1504 5.8867 19.1211s-2.5566 13.793-5.8867 19.1211c-.2578.4082-.1934.9023.1719 1.1602zm-43.7207-12.5469h6.6386c.3438 0 .5801.0859.795.3008l10.3125 9.1523c.5371.4941 1.0957.8379 1.7617.8379.9668 0 1.5254-.709 1.5254-1.6328v-32.7422c0-.9238-.5586-1.6973-1.5469-1.6973-.666 0-1.1602.3867-1.7402.8809l-10.3125 9.3672c-.2149.1933-.4512.2578-.795.2578h-6.6386c-2.041 0-3.0078 1.0312-3.0078 3.0937v9.1309c0 2.084.9882 3.0508 3.0078 3.0508zm.0429-1.5039c-1.0957 0-1.4609-.4082-1.4609-1.4824v-9.2598c0-1.0957.3652-1.5039 1.4609-1.5039h6.7676c.6445 0 1.0957-.086 1.6113-.5801l10.1407-9.2812c.1718-.1504.3222-.3008.5371-.3008.2148 0 .3652.1504.3652.4082v31.4961c0 .2793-.1504.4297-.3437.4297-.1504 0-.2793-.0645-.5371-.2793l-10.1622-9.0879c-.4941-.4297-.9668-.5586-1.6113-.5586zm36.545 8.3144c.3867.2578.8379.1719 1.1171-.1933 2.75-3.5879 4.5333-8.9375 4.5333-14.3516 0-5.4355-1.7618-10.7852-4.5333-14.3516-.2792-.3652-.7304-.4511-1.1171-.1933-.3653.2578-.4297.7305-.1289 1.1387 2.707 3.6308 4.2109 8.3574 4.2109 13.4062s-1.5039 9.7754-4.2109 13.3848c-.3008.4297-.2364.8808.1289 1.1601zm-6.961-5.6933c.3653.2578.8164.1718 1.0957-.1934 1.6328-2.1269 2.7715-5.1348 2.7715-8.6582s-1.1387-6.5312-2.7715-8.6582c-.2793-.3867-.7304-.4512-1.0957-.1934-.3867.2793-.4511.752-.1504 1.1817 1.6543 2.2773 2.4493 4.6406 2.4493 7.6699s-.795 5.3926-2.4493 7.6699c-.3007.4297-.2363.9024.1504 1.1817z" fill="#fff"/><circle cx="60" cy="60" r="59.5" stroke="#1a1a1a"/></svg>

<svg width="120" height="120" viewBox="0 0 120 120" fill="none" xmlns="http://www.w3.org/2000/svg">
<path d="M78.4219 80.7699C78.7871 81.0277 79.2598 80.9202 79.5176 80.5335C83.0195 74.9691 85.7051 68.7816 85.7051 60.4886C85.7051 52.1956 82.998 46.0081 79.5176 40.4437C79.2598 40.0355 78.7871 39.9281 78.4219 40.2074C78.0566 40.4437 77.9922 40.9378 78.25 41.3675C81.5801 46.6956 84.1367 52.5179 84.1367 60.4886C84.1367 68.4593 81.5801 74.2816 78.25 79.6097C77.9922 80.0179 78.0566 80.512 78.4219 80.7699ZM34.7012 68.223H41.3398C41.6836 68.223 41.9199 68.3089 42.1348 68.5238L52.4473 77.6761C52.9844 78.1702 53.543 78.514 54.209 78.514C55.1758 78.514 55.7344 77.805 55.7344 76.8812V44.139C55.7344 43.2152 55.1758 42.4417 54.1875 42.4417C53.5215 42.4417 53.0273 42.8284 52.4473 43.3226L42.1348 52.6898C41.9199 52.8831 41.6836 52.9476 41.3398 52.9476H34.7012C32.6602 52.9476 31.6934 53.9788 31.6934 56.0413V65.1722C31.6934 67.2562 32.6816 68.223 34.7012 68.223ZM34.7441 66.7191C33.6484 66.7191 33.2832 66.3109 33.2832 65.2367V55.9769C33.2832 54.8812 33.6484 54.473 34.7441 54.473H41.5117C42.1562 54.473 42.6074 54.387 43.123 53.8929L53.2637 44.6117C53.4355 44.4613 53.5859 44.3109 53.8008 44.3109C54.0156 44.3109 54.166 44.4613 54.166 44.7191V76.2152C54.166 76.4945 54.0156 76.6449 53.8223 76.6449C53.6719 76.6449 53.543 76.5804 53.2852 76.3656L43.123 67.2777C42.6289 66.848 42.1562 66.7191 41.5117 66.7191H34.7441ZM71.2891 75.0335C71.6758 75.2913 72.127 75.2054 72.4062 74.8402C75.1562 71.2523 76.9395 65.9027 76.9395 60.4886C76.9395 55.0531 75.1777 49.7034 72.4062 46.137C72.127 45.7718 71.6758 45.6859 71.2891 45.9437C70.9238 46.2015 70.8594 46.6742 71.1602 47.0824C73.8672 50.7132 75.3711 55.4398 75.3711 60.4886C75.3711 65.5374 73.8672 70.264 71.1602 73.8734C70.8594 74.3031 70.9238 74.7542 71.2891 75.0335ZM64.3281 69.3402C64.6934 69.598 65.1445 69.512 65.4238 69.1468C67.0566 67.0199 68.1953 64.012 68.1953 60.4886C68.1953 56.9652 67.0566 53.9574 65.4238 51.8304C65.1445 51.4437 64.6934 51.3792 64.3281 51.637C63.9414 51.9163 63.877 52.389 64.1777 52.8187C65.832 55.096 66.627 57.4593 66.627 60.4886C66.627 63.5179 65.832 65.8812 64.1777 68.1585C63.877 68.5882 63.9414 69.0609 64.3281 69.3402Z" fill="white"/>
<circle cx="60" cy="60" r="59.5" stroke="#1A1A1A"/>
</svg>
